X:1
T:Violin Caprice No. 7 in A Minor
T:Violin Caprice No. 7 in A Minor
T:Op. 1, No. 7
T:Niccolò Paganini
C:Niccolò Paganini
%%score ( 1 2 )
L:1/8
Q:1/4=60
M:6/8
K:C
V:1 treble nm="Violin" snm="Vln."
V:2 treble 
V:1
"^Posato"!f! (.[Ee].[Ee]) | (.[cc']>.[Bb].[Aa]) (!>![^G^g]2 !>![Bb]) | %2
 !>![Aa] (.[Ee]/.[Dd]/.[Cc]/.[B,B]/ .[A,A])(.[Aa].[Bb]) | %3
 (.[cc']>.[dd'].[ee'] .[ff']>.[gg'].[aa']) | [G,G]3- [G,G]!p![^G,^G][Dd] | %5
"^simile" [Cc]>[B,B]([A,A] [^G,^G])([G^g][dd']) | (.[cc']>.[Bb])([Aa] [^G^g])!pp!(.[=G=g].[Ff]) | %7
 [Ee]>[Bb][Gg] [Ee]>[^F^f][^D^d] | [Ee]3 z!f! [ee'][ee'] | %9
!8va(! [c'c'']>[bb'][aa'] ([^g^g']2 [bb']) | [aa'] (.[ee']/.[dd']/.[cc']/.[Bb]/) [Aa][aa'][bb'] | %11
 ([c'c'']>[d'd''][e'e''] [e'e'']>[f'f''][g'g''])!8va)! | [^C^c]3- [Cc] ([_b_b'][aa']) | %13
 [ff'] (.[Df].[Ce] .[B,d])([_a_a'][gg']) | [ee'] (.[Ce].[B,d] .[A,c]) ([A,^F][^fd']) | %15
 [G,DBg] ([A,^F][^fd']) [G,DBg] ([A,F][fd']) | %16
 [G,DBg]3 z/ (.=f/4.e/4.d/4.c/4.B/4.A/4.G/4.F/4.E/4.D/4) | %17
 .C/.E/4.C/4.G/4.E/4.c/4.G/4.e/4.c/4.g/4.e/4!8va(! .c'/4.g/4.e'/4.c'/4.g'/4.e'/4.c''/4.g'/4.e''/4.c''/4.g''/4.e''/4 | %18
 c'''/!8va)!(.[cc']/.[Bb]/.[_B_b]/.[Aa]/.[_A_a]/) [Gg]/ (.e/4.d/4.c/4.=B/4.=A/4.G/4.F/4.E/4.D/4.C/4) | %19
 !>!B,/D/4B,/4G/4D/4B/4G/4d/4B/4g/4d/4!8va(! b/4g/4d'/4b/4g'/4d'/4b'/4g'/4d''/4b'/4g''/4d''/4 | %20
 b''/!8va)!(.[dd']/.[Bb]/.[_B_b]/.[Aa]/.[_A_a]/) [Gg]/ (.f/4.e/4.d/4.c/4.=B/4.=A/4.G/4.F/4.E/4.D/4) | %21
 C/ (._b/4.a/4.g/4.f/4.e/4.d/4.c/4._B/4.A/4.G/4) F/ (.f/4.g/4.a/4.b/4.c'/4.d'/4.e'/4.f'/4.g'/4.a'/4) | %22
 A,/ (.g/4.f/4.e/4.d/4.^c/4._B/4.A/4.G/4.F/4.E/4) D/ (.d/4.e/4.f/4.g/4.a/4.=b/4.^c'/4.d'/4.e'/4.f'/4) | %23
 G,/ (.f/4.e/4.d/4.=c/4.B/4.A/4.G/4.F/4.E/4.D/4) C/ (.c/4.d/4._e/4.f/4.g/4.a/4.b/4.c'/4.d'/4._e'/4) | %24
!f! c>=d_e [G,_E_d]/ (.e/4.f/4.g/4.a/4._b/4.=b/4.c'/4._d'/4.=d'/4._e'/4) | %25
!f! c>=d_e [G,_E_d]/ (.e/4.f/4.g/4.a/4._b/4.=b/4.c'/4._d'/4.=d'/4._e'/4) | c>=d_e c>de | %27
 [G,=Fd]/ (.b/4.a/4.g/4.f/4.=e/4.d/4.c/4.B/4.A/4.G/4) [A,Ec]/ (.c'/4.b/4.a/4.g/4.f/4.e/4.d/4.c/4.B/4.A/4) | %28
 [CFA]>(.[A,Ff].[_A,Fd]) [G,Ec]>(.[G,Fd].[G,DB]) | C[cc'][dd'] [ee']>[ff'][gg'] | %30
 [_A,FB]>[DFB] G,/(.b/4.=a/4 .g/4.f/4.e/4.d/4.c/4.B/4.A/4.G/4.F/4.G/4.F/4.D/4) | [CEc] z z z :: %32
 z z | %33
 [_B,G^c]>[EGc] A,/(.^c'/4._b/4 (13:12:13.a/4.g/4.f/4.e/4.d/4.c/4.B/4.A/4.G/4.F/4.A/4.G/4.E/4) | %34
 (.[DFd]>.[EGd].[FAd]) (.[G_Bd]2 .[FA^d]) | (.[E^Ge]>.[^FAe].[GBe]) (.[Ace]2 .[=G_Be]) | %36
 (.[FAf]>.[G_Bf].[Acf]) (.[B_df]2 .[_A_cf]) | (.[^F^A^f]>.[^G=Bf].[A^cf]) (.[B=df]2 .[=A=cf]) | %38
 (.[GBg]>.[Acg].[Bdg]) (.[c_eg]2 .[_B_dg]) | (.[_Ac_a]>.[Ac_b].[Aca]) (.[_Gca]2 .[Gc=a]) | %40
 (.[Fca]>.[F_d_b].[F_ec']) ([Fdc']2 [Fdb]) | ([=E_d_b]2 [Ecb]) ([Fc_a]2 [=D_ca]) | %42
 ([_E_B_g]2 [=C_Ag]) ([_DAf]2 [_CAf]) | (.[^A,^F^f]>.[A,F^e].[A,F^d]) [B,^Ed]2 [B,E^c] | %44
 (.[^A,^F^f]>.[A,F^e].[A,F^d]) [B,^E=d]2 [A,Ed] | (.[^A,^F^d]>.[A,F=e].[A,F^c]) ([B,^DB]2 [DB^f]) | %46
 ([EB^g]2 [^E^cg]) [^F^A^f]2 z | %47
 (.B/4.^d/4.^f/4.^a/4.b/4.f/4.^g/4.f/4.e/4.d/4.^c/4.B/4) (.[^Acf]>.[^GBf].[^FAf]) | %48
 (.^G/4.B/4.^d/4.^^f/4.^g/4.d/4.e/4.d/4.^c/4.B/4.^A/4.G/4) (.[^^FAd]>.[^EGd].[^DFd]) | %49
 (.E/4.^G/4.B/4.^d/4.e/4.B/4.^c/4.B/4.^A/4.G/4.^F/4.E/4) (.[^DFB]>.[^CEB].[B,DB]) | %50
 (.[=D^FB]>.[^CEB].[B,DB]) (.A,/4.=C/4.F/4.A/4.d/4.c/4.A/4.F/4.G/4.D/4.B,/4.G,/4) | %51
 (.[Bdg]>.[Acg].[GBg]) (.^D/4.^F/4.B/4.^d/4.b/4.a/4.^f/4.d/4.e/4.B/4.^G/4.E/4) | %52
 (.C/4.E/4.=G/4.c/4.e/4.g/4)(.c'/4.g/4.e/4.c/4.G/4.E/4) (.B,/4.E/4.G/4.B/4.e/4.g/4)(.b/4.g/4.e/4.B/4.G/4.E/4) | %53
 (.^A,/4.^C/4.E/4.G/4.^A/4.^c/4)(.e/4.c/4.A/4.G/4.E/4.C/4) (.=A,/4.=C/4.^D/4.^F/4.=A/4.=c/4)(.^d/4.c/4.A/4.F/4.D/4.C/4) | %54
 (.^G,/4.B,/4.=D/4.=F/4.^G/4.B/4)(.d/4.B/4.G/4.F/4.D/4.B,/4) (.G,/4.A,/4.C/4.E/4.A/4.c/4.e/4.a/4)(.c'/4.a/4.e/4.c/4) | %55
 (.A/4.c'/4.a/4.f/4.c/4.A/4.F/4.A/4.E/4.A/4.^D/4.A/4) (.E/4.^G/4.B/4.e/4.b/4.^g/4.=f/4.e/4)(.=d'/4.b/4.a/4.g/4 | %56
 .f/4.e/4.d/4.c/4.B/4.A/4.^G/4.F/4.E/4.D/4.C/4.B,/4) (.[CEe]>.[B,Ed].[A,Ec]) | %57
 (.[^Dca]>.[CD].[A,D]) (.E/4.^G/4.B/4.e/4.b/4.^g/4.=f/4.e/4)(.=d'/4.b/4.a/4.g/4 | %58
 .f/4.e/4.d/4.c/4.B/4.A/4.^G/4.F/4.E/4.D/4.C/4.B,/4) (.[CEe]>.[B,Ed].[A,Ec]) | %59
 [^Dca]3/2!mp! (.[CD]/.[A,D])!p! (.[^G,E]>.[A,F].[A,D]) | %60
 [^G,E]>!pp!(.[Af].[A^d]) [^Ge]>[af'][af'] | %61
 [^ge']3 z !fermata!z/!<(! (.^G/4.^F/4.E/4.D/4.^C/4.B,/4)!<)! || %62
[K:A]!f! A,/C/4A,/4E/4C/4A/4E/4c/4A/4e/4c/4 a/4e/4c'/4a/4!8va(!e'/4c'/4a'/4e'/4c''/4a'/4e''/4c''/4 | %63
 a''/!8va)!(.[Aa]/.[Gg]/.[=G=g]/.[Ff]/.[=F=f]/ .[Ee]/) (.c/4.B/4.A/4.^G/4.^F/4.E/4.D/4.C/4.B,/4.A,/4) | %64
 G,/B,/4G,/4E/4B,/4G/4E/4B/4G/4e/4B/4 g/4e/4b/4g/4!8va(!e'/4b/4g'/4e'/4b'/4g'/4e''/4b'/4 | %65
 g''/!8va)!(.[Bb]/.[Gg]/.[=G=g]/.[Ff]/.[=F=f]/ .[Ee]/) (.d/4.c/4.B/4.A/4.^G/4.^F/4.E/4.D/4.C/4.B,/4) | %66
 A,/ (.=g/4.f/4.e/4.d/4.c/4.B/4.A/4.=G/4.F/4.E/4) D/ (.d/4.e/4.f/4.=g/4.a/4.b/4.c'/4.d'/4.e'/4.f'/4) | %67
 F/ (.e/4.d/4.c/4.B/4.^A/4.=G/4.F/4.E/4.D/4.C/4) B,/ (.B/4.c/4.d/4.e/4.f/4.^g/4.^a/4.b/4.c'/4.d'/4) | %68
 E/ (.d/4.c/4.B/4.=A/4.G/4.F/4.E/4.D/4.C/4.B,/4) A,/ (.A/4.B/4.=c/4.d/4.e/4.f/4.^g/4.a/4.b/4.=c'/4) | %69
 (.[A=c=f]>.[=Gc=g].[=Fca]) [Ec_b]/ (.e'/4.d'/4.=c'/4.b/4.a/4.g/4.f/4.e/4.d/4.c/4) | %70
 (.[A=c=f]>.[=Gc=g].[=Fca]) [Ec_b]/ (.e'/4.d'/4.=c'/4.b/4.a/4.g/4.f/4.e/4.d/4.c/4) | %71
 (.[A=c=f]>.[=Gc=g].[=Fca]) (.[^Dc=c']>.[Dcb].[Dca]) | %72
 [EB^g]/ (.e/4.f/4.g/4.a/4.b/4.c'/4.d'/4.e'/4.f'/4.g'/4) [Fca]/ (.f/4.g/4.a/4.b/4.c'/4.^d'/4.^e'/4.f'/4.g'/4.a'/4) | %73
 [=DAf]>(.[FAa].[^D=ca]) [E^ca]>(.[E=db].[EBg]) | A !>![aa']!>![bb'] [c'c'']>(.[d'd''].[e'e'']) | %75
 [=Fdg]>[Bdg] E/(.b/4.a/4 (13:12:13.g/4.f/4.e/4.d/4.c/4.B/4.A/4.G/4.^F/4.E/4.D/4.C/4.B,/4) | %76
 [A,Eca] z z z :| %77
V:2
 x2 | x6 | x6 | x6 | x6 | x6 | x6 | x6 | x6 |!8va(! x6 | x6 | x6!8va)! | x6 | x6 | x6 | x6 | x6 | %17
 x3!8va(! x3 | x/!8va)! x11/2 | x3!8va(! x3 | x/!8va)! x11/2 | x6 | x6 | x6 | [_A,_E]3 x3 | %25
 [_A,_E]3 x3 | [_A,_E]3 [A,^F]3 | x6 | x6 | x6 | x6 | x4 :: x2 | x287/48 | x6 | x6 | x6 | x6 | x6 | %39
 x6 | x6 | x6 | x6 | x6 | x6 | x6 | x6 | x6 | x6 | x6 | x6 | x6 | x6 | x6 | x6 | x6 | x6 | x6 | %58
 x6 | x6 | x6 | x6 ||[K:A] x4!8va(! x2 | x/!8va)! x11/2 | x4!8va(! x2 | x/!8va)! x11/2 | x6 | x6 | %68
 x6 | x6 | x6 | x6 | x6 | x6 | x6 | x287/48 | x4 :| %77

